icons/TriangleLeft.svg

<svg width="24" height="24" viewBox="0 0 24 24" fill="none" xmlns="http://www.w3.org/2000/svg">
<path fill-rule="evenodd" clip-rule="evenodd" d="M6.77706,11.7868c-0.15864,0.0976 -0.15864,0.3282 0,0.4258l10.09194,6.2104c0.1666,0.1025 0.381,-0.0173 0.381,-0.2129v-12.42084c0,-0.19558 -0.2144,-0.31542 -0.381,-0.21291zM5.99091,13.4901c-1.11044,-0.6833 -1.11044,-2.2975 0,-2.9808l10.09199,-6.21044c1.1659,-0.71752 2.6671,0.12134 2.6671,1.4904v12.42084c0,1.3691 -1.5012,2.208 -2.6671,1.4904z" fill="#002B51"/>
</svg>

<svg width="24" height="24" viewBox="0 0 24 24" fill="none" xmlns="http://www.w3.org/2000/svg">
<path fill-rule="evenodd" clip-rule="evenodd" d="M6.77706 11.7868C6.61842 11.8844 6.61842 12.115 6.77706 12.2126L16.869 18.423C17.0356 18.5255 17.25 18.4057 17.25 18.2101V5.78926C17.25 5.59368 17.0356 5.47384 16.869 5.57635L6.77706 11.7868ZM5.99091 13.4901C4.88047 12.8068 4.88047 11.1926 5.99091 10.5093L16.0829 4.29886C17.2488 3.58134 18.75 4.4202 18.75 5.78926V18.2101C18.75 19.5792 17.2488 20.4181 16.0829 19.7005L5.99091 13.4901Z" fill="#002B51"/>
</svg>
